X:1
T:Cercle circassien : Termen B
%%scale 0.80
Z:Roger Ngaret (94-95)
R:marche
C:Trad.
S:
A:Bretagne
Q:3/8=180
M:6/8
L:1/16
K:C
E2A2B2 |: "Am"c4 c2 c2d2e2 | "G"d2B2G2 G2A2B2 | "F"c2B2A2 A2B2c2 |
"G"B2G2E2 "Em"E2A2B2 | "Am"c4 c2 c2d2e2 | "G"d2B2G2 G2A2B2 |
"F"c2B2A2 "G"B2c2B2 |1 "Am"A4 A2 E2A2B2 :|2
A4 A2 A2e2f2 |: "C"g4 g2 g2f2e2 | "G"d2B2G2 G4 G2 |
"F"a4 a2 a2b2a2 | "C"g4 g2 e4 f2 | g2c2e2 g2f2e2 |
"G"d2B2G2 G2A2B2 | "F"c2B2A2 "G"B2c2B2 |1 
"Am"A4 A2 A2e2f2 :|2 A4 A2 E2A2B2 |]
